svgs/light/empty-set.svg

<svg xmlns="http://www.w3.org/2000/svg" viewBox="0 0 512 512"><!-- Font Awesome Pro 6.0.0-alpha2 by @fontawesome - https://fontawesome.com License - https://fontawesome.com/license (Commercial License) --><path d="M491.312 20.688C485.062 14.438 474.937 14.438 468.688 20.688L391.225 98.15C354.848 66.959 307.676 48 256 48C141.125 48 48 141.125 48 256C48 307.676 66.959 354.848 98.15 391.225L20.688 468.687C14.438 474.937 14.438 485.062 20.688 491.312C23.812 494.438 27.906 496 32 496S40.188 494.438 43.312 491.312L120.775 413.85C157.152 445.041 204.324 464 256 464C370.875 464 464 370.875 464 256C464 204.324 445.041 157.152 413.85 120.775L491.312 43.313C497.562 37.062 497.562 26.938 491.312 20.688ZM80 256C80 158.953 158.953 80 256 80C298.775 80 338.008 95.369 368.541 120.834L120.834 368.541C95.369 338.008 80 298.775 80 256ZM432 256C432 353.047 353.047 432 256 432C213.225 432 173.992 416.631 143.459 391.166L391.166 143.459C416.631 173.992 432 213.225 432 256Z"/></svg>

<svg xmlns="http://www.w3.org/2000/svg" viewBox="0 0 512 512"><!--! Font Awesome Pro 6.3.0 by @fontawesome - https://fontawesome.com License - https://fontawesome.com/license (Commercial License) Copyright 2023 Fonticons, Inc. --><path d="M491.3 20.69c-6.25-6.25-16.38-6.25-22.62 0L391.2 98.15C354.8 66.96 307.7 48 256 48C141.1 48 48 141.1 48 256c0 51.68 18.96 98.85 50.15 135.2l-77.46 77.46c-6.25 6.25-6.25 16.38 0 22.62C23.81 494.4 27.91 496 32 496s8.188-1.562 11.31-4.688l77.46-77.46C157.2 445 204.3 464 256 464c114.9 0 208-93.13 208-208c0-51.68-18.96-98.85-50.15-135.2l77.46-77.46C497.6 37.06 497.6 26.94 491.3 20.69zM80 256c0-97.05 78.95-176 176-176c42.78 0 82.01 15.37 112.5 40.83L120.8 368.5C95.37 338 80 298.8 80 256zM432 256c0 97.05-78.95 176-176 176c-42.78 0-82.01-15.37-112.5-40.83l247.7-247.7C416.6 173.1 432 213.2 432 256z"/></svg>
